X: 37
T:Quaker, The (Bampton)
M:4/4
L:1/8
O:England; Oxfordshire; Bampton.
B:Lionel Bacon, A Handbook of Morris Dances
Z:http://www.themorrisring.org/music/handbook-morris-dances
P:A(AB2)4
K:DMIX
P:A
DG|B2{c}B2 AGFE|(3EFED2 D3 E|F2F2 FEDF |A2G2 G3B|
d2ed    c2dB|  A2E2  E2c2|BAGF E2F2 |G4   G2 ||
P:B
FG|A2A2 B3 B|AGFG  A2BA|GFEF G2AG |FEDE F3G|
A2A2 B3 B|AGFG  A2BA|GFEF GAB^c|d2D2 D2||

